package/converter/svg/thin/window-flip.svg

<svg xmlns="http://www.w3.org/2000/svg" viewBox="0 0 512 512"><!-- Font Awesome Pro 6.0.0-alpha2 by @fontawesome - https://fontawesome.com License - https://fontawesome.com/license (Commercial License) --><path d="M448 32H64C28.654 32 0 60.654 0 96V416C0 451.346 28.654 480 64 480H448C483.346 480 512 451.346 512 416V96C512 60.654 483.346 32 448 32ZM496 416C496 442.467 474.467 464 448 464H64C37.533 464 16 442.467 16 416V96C16 69.533 37.533 48 64 48H448C474.467 48 496 69.533 496 96V416ZM224 112C215.164 112 208 119.164 208 128S215.164 144 224 144S240 136.836 240 128S232.836 112 224 112ZM320 112C311.164 112 304 119.164 304 128S311.164 144 320 144S336 136.836 336 128S328.836 112 320 112ZM416 112C407.164 112 400 119.164 400 128S407.164 144 416 144S432 136.836 432 128S424.836 112 416 112Z"/></svg>

<svg xmlns="http://www.w3.org/2000/svg" viewBox="0 0 512 512"><!--! Font Awesome Pro 6.6.0 by @fontawesome - https://fontawesome.com License - https://fontawesome.com/license (Commercial License) Copyright 2024 Fonticons, Inc. --><path d="M448 48c26.5 0 48 21.5 48 48l0 320c0 26.5-21.5 48-48 48L64 464c-26.5 0-48-21.5-48-48L16 96c0-26.5 21.5-48 48-48l384 0zm64 48c0-35.3-28.7-64-64-64L64 32C28.7 32 0 60.7 0 96L0 416c0 35.3 28.7 64 64 64l384 0c35.3 0 64-28.7 64-64l0-320zm-96 48a16 16 0 1 0 0-32 16 16 0 1 0 0 32zM304 128a16 16 0 1 0 32 0 16 16 0 1 0 -32 0zm-80 16a16 16 0 1 0 0-32 16 16 0 1 0 0 32z"/></svg>
